X: 22
T:Princess Royal
% Nottingham Music Database
P:AAB
S:McCuskers
M:4/4
L:1/4
K:Am
P:A
e/2d/2|"Am"cB/2c/2 Ae/2^f/2|"Am"e/2d/2c/2B/2 A/2c/2e|"D"^fd df/2g/2|\
"Am"e/2d/2c/2B/2 cB/2A/2|
"G"Bg BG|"Am"A/2B/2A/2G/2 Ee/2d/2|"Am"c/2B/2A/2c/2 "Em"B/2A/2G/2B/2|"Am"A2 A:|
P:B
"Am"ea a/2g/2a/2b/2|"Am"a/2g/2e/2^f/2 "G"gd|"Am"e/2g/2^f/2a/2 g/2f/2e|\
"G"d/2c/2B/2A/2 GA/2B/2|
"Am"cc "D"dd|e/2^f/2g/2e/2 a/2b/2a/2g/2|"D"^fA fg/2f/2|"Am"eA "D"de/2d/2|
"Am"cB/2c/2 "Em"A/2B/2c/2d/2|"Am"eA Ae/2d/2|"Am"c/2B/2A/2c/2 "Em"B/2A/2G/2B/2|\
"Am"A2 A||<end>
<start>
